svgs/light/books-medical.svg

<svg xmlns="http://www.w3.org/2000/svg" viewBox="0 0 576 512"><!--! Font Awesome Pro 6.6.0 by @fontawesome - https://fontawesome.com License - https://fontawesome.com/license (Commercial License) Copyright 2024 Fonticons, Inc. --><path d="M192 464c0 8.8-7.2 16-16 16l-64 0c-8.8 0-16-7.2-16-16l0-48 96 0 0 48zm-16 48c12.3 0 23.5-4.6 32-12.2c8.5 7.6 19.7 12.2 32 12.2l64 0c26.5 0 48-21.5 48-48l0-48 0-16 0-16 0-190.2 51.4 198.1 4 15.5 18 69.2c6.6 25.5 32 40.6 56.7 33.8l59.6-16.5c24.7-6.8 39.3-33 32.7-58.5l-13.9-53.7-4-15.5-63.9-246-4-15.5-18-69.2C464 9.9 438.6-5.2 413.9 1.6L354.3 18.1c-3.5 1-6.8 2.3-9.9 4C335.9 8.8 321 0 304 0L240 0c-12.3 0-23.5 4.6-32 12.2C199.5 4.6 188.3 0 176 0L112 0C85.5 0 64 21.5 64 48l0 48 0 16 0 16 32 0 80 0 16 0 0 48 32 0 0-48 96 0 0 256-96 0 0-48-32 0 0 48-16 0-80 0-32 0 0 16 0 16 0 48c0 26.5 21.5 48 48 48l64 0zM352 64.8l0-1.3c.3-7.2 5.1-13 10.8-14.6l59.6-16.5c6.6-1.8 14.8 2 17.2 11l14.1 54.2-87.3 24.2L352.6 68.6c-.3-1.3-.5-2.6-.6-3.8zm-32-.6c0 0 0 0 0 0L320 96l-96 0 0-48c0-8.8 7.2-16 16-16l64 0c8.8 0 16 7.2 16 16l0 16.2zM240 480c-8.8 0-16-7.2-16-16l0-48 96 0 0 48c0 8.8-7.2 16-16 16l-64 0zM192 48l0 48L96 96l0-48c0-8.8 7.2-16 16-16l64 0c8.8 0 16 7.2 16 16zm269.7 80.7l59.8 230.5-87.3 24.2L374.4 152.8l87.3-24.2zm67.9 261.5l13.8 53.2c2.4 9.4-3.2 17.7-10.3 19.6l-59.6 16.5c-6.6 1.8-14.8-2-17.2-11l-14.1-54.2 87.3-24.2zM80 160c-17.7 0-32 14.3-32 32l0 16-16 0c-17.7 0-32 14.3-32 32l0 32c0 17.7 14.3 32 32 32l16 0 0 16c0 17.7 14.3 32 32 32l32 0c17.7 0 32-14.3 32-32l0-16 16 0c17.7 0 32-14.3 32-32l0-32c0-17.7-14.3-32-32-32l-16 0 0-16c0-17.7-14.3-32-32-32l-32 0zm0 32l32 0 0 32c0 8.8 7.2 16 16 16l32 0 0 32-32 0c-8.8 0-16 7.2-16 16l0 32-32 0 0-32c0-8.8-7.2-16-16-16l-32 0 0-32 32 0c4.2 0 8.3-1.7 11.3-4.7s4.7-7.1 4.7-11.3l0-32z"/></svg>

<svg xmlns="http://www.w3.org/2000/svg" viewBox="0 0 576 512"><!--! Font Awesome Pro 6.4.2 by @fontawesome - https://fontawesome.com License - https://fontawesome.com/license (Commercial License) Copyright 2023 Fonticons, Inc. --><path d="M192 464c0 8.8-7.2 16-16 16H112c-8.8 0-16-7.2-16-16V416h96v48zm-16 48c12.3 0 23.5-4.6 32-12.2c8.5 7.6 19.7 12.2 32 12.2h64c26.5 0 48-21.5 48-48V416 400 384 193.8l51.4 198.1 4 15.5 18 69.2c6.6 25.5 32 40.6 56.7 33.8l59.6-16.5c24.7-6.8 39.3-33 32.7-58.5l-13.9-53.7-4-15.5-63.9-246-4-15.5-18-69.2C464 9.9 438.6-5.2 413.9 1.6L354.3 18.1c-3.5 1-6.8 2.3-9.9 4C335.9 8.8 321 0 304 0H240c-12.3 0-23.5 4.6-32 12.2C199.5 4.6 188.3 0 176 0H112C85.5 0 64 21.5 64 48V96v16 16H96h80 16v48h32V128h96V384H224V336H192v48H176 96 64v16 16 48c0 26.5 21.5 48 48 48h64zM352 64.8V63.5c.3-7.2 5.1-13 10.8-14.6l59.6-16.5c6.6-1.8 14.8 2 17.2 11l14.1 54.2-87.3 24.2L352.6 68.6c-.3-1.3-.5-2.6-.6-3.8zm-32-.6v0V96H224V48c0-8.8 7.2-16 16-16h64c8.8 0 16 7.2 16 16V64.2zM240 480c-8.8 0-16-7.2-16-16V416h96v48c0 8.8-7.2 16-16 16H240zM192 48V96H96V48c0-8.8 7.2-16 16-16h64c8.8 0 16 7.2 16 16zm269.7 80.7l59.8 230.5-87.3 24.2L374.4 152.8l87.3-24.2zm67.9 261.5l13.8 53.2c2.4 9.4-3.2 17.7-10.3 19.6l-59.6 16.5c-6.6 1.8-14.8-2-17.2-11l-14.1-54.2 87.3-24.2zM80 160c-17.7 0-32 14.3-32 32v16H32c-17.7 0-32 14.3-32 32v32c0 17.7 14.3 32 32 32H48v16c0 17.7 14.3 32 32 32h32c17.7 0 32-14.3 32-32V304h16c17.7 0 32-14.3 32-32V240c0-17.7-14.3-32-32-32H144V192c0-17.7-14.3-32-32-32H80zm0 32h32v32c0 8.8 7.2 16 16 16h32v32H128c-8.8 0-16 7.2-16 16v32H80V288c0-8.8-7.2-16-16-16H32V240H64c4.2 0 8.3-1.7 11.3-4.7s4.7-7.1 4.7-11.3V192z"/></svg>
